src/ui/assets/img/users.svg

<svg width="80" height="80" viewBox="0 0 80 80" fill="none" xmlns="http://www.w3.org/2000/svg">
    <path fill-rule="evenodd" clip-rule="evenodd" d="M20.0959 0.0980867C17.7504 0.466638 15.8651 1.30641 13.5428 3.01647C12.7137 3.62717 11.9524 4.12664 11.851 4.12664C11.7494 4.12664 11.1643 4.37815 10.5505 4.68552C7.90946 6.00814 6.14005 8.85355 6.14005 11.7777C6.14005 13.4155 6.4571 14.4522 7.74401 17.024L8.87045 19.2748L8.24361 19.3809C7.36422 19.5296 6.23713 20.2914 5.70463 21.0971C5.29663 21.7141 5.25309 21.9159 5.25309 23.1904C5.25309 24.4999 5.28808 24.6505 5.74189 25.2969C6.37228 26.1948 7.46937 26.8702 8.49486 26.9918L9.29942 27.0872L9.60292 28.1583C10.4014 30.9752 12.307 33.5526 14.8081 35.1981L15.4935 35.649V37.3782V39.1075L9.56696 41.5668C6.30745 42.9192 3.25742 44.2846 2.78942 44.6009C1.76893 45.2904 1.12628 46.0698 0.533469 47.3364L0.0925668 48.2785L0.0462834 57.9254L0 67.5723L0.401714 67.9746L0.80359 68.3768H5.56836H10.333V73.7921V79.2075L10.7289 79.6037L11.1246 80H40.006H68.8873L69.2831 79.6037L69.679 79.2075V73.7921V68.3768H74.4436H79.2084L79.6041 67.9805L80 67.5844L79.9981 58.3349C79.9961 48.6632 79.9708 48.2615 79.2774 46.9063C78.7963 45.9663 78.1188 45.2064 77.2225 44.6018C76.7545 44.2862 73.7045 42.9191 70.445 41.5637L64.5184 39.0996V37.3742V35.649L65.2038 35.1981C67.7049 33.5526 69.6106 30.9752 70.409 28.1583L70.7125 27.0872L71.5171 26.9918C73.355 26.7739 74.7037 25.2845 74.809 23.3563C74.8598 22.4278 74.8067 22.1716 74.4041 21.3999C73.8691 20.3748 72.8035 19.5559 71.7795 19.3827C71.4224 19.3223 71.1304 19.2501 71.1304 19.2222C71.1304 19.1944 71.4676 18.3836 71.8796 17.4203C72.7888 15.2949 73.0323 14.4222 73.1565 12.844C73.3758 10.0577 72.1649 6.90586 70.0855 4.85131C68.8268 3.60747 67.8254 3.02212 64.3572 1.50287C61.5779 0.28551 60.382 0.00978297 57.9872 0.0343207C54.7891 0.0669301 52.612 0.847296 49.6665 3.01647C48.8374 3.62717 48.0761 4.12664 47.9746 4.12664C47.3905 4.12664 45.4589 5.34142 44.5708 6.26724C42.8702 8.04009 42.1563 9.96824 42.315 12.3597C42.3651 13.1144 42.4561 13.8991 42.5172 14.1035C42.6199 14.4474 42.5936 14.4659 42.1637 14.3531C41.4996 14.1786 38.2783 14.2257 37.4618 14.4217L36.7721 14.5873L36.8968 13.9982C37.1003 13.0358 36.9998 10.7409 36.705 9.61535C36.0549 7.13316 34.1793 4.59253 32.0836 3.35564C30.6619 2.51651 26.3237 0.645182 25.1156 0.34976C23.7519 0.0164018 21.3742 -0.102736 20.0959 0.0980867ZM24.6845 2.91557C26.1853 3.30495 30.6103 5.39372 31.5395 6.15149C33.7214 7.93096 34.8177 10.6976 34.3837 13.3286C34.058 15.3029 33.8638 15.6098 32.1658 16.8333C30.5027 18.0318 30.4809 18.0447 28.6943 18.8842C25.3138 20.4725 23.4899 24.4076 24.4407 28.0615C24.572 28.5663 25.1893 29.998 25.8124 31.2433L26.9455 33.5074H26.1166C24.7976 33.5074 24.0483 33.8115 23.1482 34.7126C21.5166 36.3459 21.5166 38.4177 23.1482 40.0509C24.0874 40.9911 24.7932 41.2562 26.3574 41.2562C27.1837 41.2562 27.4272 41.3094 27.4272 41.4899C27.4272 42.0331 28.4732 44.5541 29.1094 45.5436C29.9257 46.8138 31.4927 48.4438 32.6932 49.2715L33.5553 49.8657V51.5225V53.1792L32.7087 53.4233C32.2431 53.5575 28.161 54.6911 23.6374 55.9423C19.1139 57.1938 15.0863 58.3315 14.6872 58.4709C12.114 59.3689 10.333 61.9421 10.333 64.7616V65.7939H6.4571H2.58139L2.62703 57.2783C2.6725 48.8322 2.67573 48.7573 3.031 48.0923C3.22807 47.7235 3.64946 47.207 3.96747 46.9446C4.32452 46.6501 7.04669 45.4284 11.0783 43.7532C15.2922 42.0023 17.6928 40.9217 17.8422 40.7081C18.0226 40.4501 18.0738 39.7342 18.0738 37.4625C18.0738 34.1049 18.0833 34.1329 16.6612 33.3287C16.1521 33.0408 15.2177 32.2832 14.5852 31.6451C13.1809 30.229 12.2253 28.4276 11.8477 26.4851C11.5091 24.7432 11.2114 24.4672 9.67162 24.4672C8.68983 24.4672 8.49325 24.416 8.14862 24.0708C7.62483 23.5467 7.62483 22.8047 8.14862 22.2806C8.49438 21.9343 8.68887 21.8842 9.68791 21.8842C10.687 21.8842 10.8814 21.8342 11.2272 21.4879C11.5631 21.1518 11.6234 20.9376 11.6252 20.0754C11.6273 19.1239 11.5375 18.8748 10.2141 16.1614L8.80095 13.2639V11.8028C8.80095 10.4467 8.84046 10.269 9.35054 9.32719C10.0058 8.11758 10.7286 7.44457 11.9382 6.91765C13.5512 6.21526 13.7841 6.07917 15.3322 4.93606C16.9328 3.75421 18.6492 2.96045 20.2078 2.68117C21.3263 2.48067 23.433 2.59093 24.6845 2.91557ZM60.8082 2.91557C62.3089 3.30495 66.7339 5.39372 67.6631 6.15149C69.2548 7.44973 70.1658 9.05324 70.5246 11.1887C70.7815 12.7181 70.4837 14.1327 69.349 16.7731C68.5059 18.7348 68.3888 19.1341 68.3888 20.0494C68.3888 20.9408 68.4461 21.1491 68.7847 21.4879C69.1305 21.8342 69.325 21.8842 70.324 21.8842C71.3231 21.8842 71.5176 21.9343 71.8633 22.2806C72.3871 22.8047 72.3871 23.5467 71.8633 24.0708C71.5187 24.416 71.3221 24.4672 70.3403 24.4672C68.8005 24.4672 68.5028 24.7432 68.1642 26.4851C67.7876 28.4223 66.8313 30.2272 65.4267 31.6517C64.7942 32.2933 63.8581 33.0536 63.3465 33.3411C61.9259 34.14 61.9382 34.1039 61.9382 37.4806C61.9382 40.0394 61.9741 40.4556 62.2204 40.7454C62.3833 40.937 65.2437 42.2168 68.9821 43.7706C72.991 45.4368 75.6831 46.6464 76.0422 46.9428C76.3615 47.2062 76.7839 47.7235 76.9809 48.0923C77.3362 48.7573 77.3394 48.8322 77.3849 57.2783L77.4305 65.7939H73.5548H69.679V64.759C69.679 62.2426 68.2442 59.8714 66.0203 58.7127C65.8263 58.6116 61.4721 57.3637 56.3443 55.9398C51.2166 54.5158 46.894 53.3123 46.7388 53.2655C46.4939 53.1917 46.4566 52.9615 46.4566 51.5231V49.8657L47.3383 49.2579C48.5524 48.4209 50.3099 46.5287 51.1001 45.208C51.4625 44.6025 51.9627 43.4673 52.2121 42.6855L52.6654 41.2639L53.6949 41.26C55.2222 41.2544 55.9321 40.9835 56.8638 40.0509C58.4953 38.4177 58.4953 36.3459 56.8638 34.7126C55.9637 33.8119 55.2143 33.5074 53.8965 33.5074C53.4411 33.5074 53.0685 33.4782 53.0685 33.4425C53.0685 33.4068 53.4057 32.5896 53.8178 31.6264C54.727 29.501 54.9705 28.6282 55.0947 27.0501C55.3148 24.2537 54.1272 21.1734 52.013 19.0572C50.9387 17.9816 50.5773 17.7443 48.4018 16.6859L45.9844 15.5099L45.4545 14.3787C44.9785 13.3625 44.9246 13.1 44.9246 11.7947C44.9246 10.4479 44.9647 10.2677 45.4742 9.32719C46.1294 8.11758 46.8522 7.44457 48.0619 6.91765C49.6749 6.21526 49.9077 6.07917 51.4559 4.93606C53.0564 3.75421 54.7728 2.96045 56.3314 2.68117C57.45 2.48067 59.5566 2.59093 60.8082 2.91557ZM42.7723 17.1139C44.2057 17.4881 48.7006 19.6232 49.6013 20.3576C52.3606 22.6079 53.3114 26.4586 51.8745 29.5633L51.506 30.3595L50.7569 28.8728C49.6339 26.6438 49.2754 26.5682 47.177 28.1181C44.4951 30.0989 43.1292 30.6822 40.742 30.8659C38.0376 31.074 35.818 30.3343 33.1035 28.3202C30.6864 26.5269 30.376 26.5787 29.2082 28.9692C28.8131 29.7783 28.4441 30.4402 28.3883 30.4402C28.3326 30.4402 27.9666 29.7681 27.5749 28.9469C26.8962 27.5237 26.8628 27.3855 26.8628 26.0008C26.8628 24.6539 26.9029 24.4738 27.4124 23.5333C28.0579 22.3414 28.7681 21.6718 30 21.0934C30.7462 20.7431 31.1216 20.674 32.2652 20.6764C33.4553 20.679 33.7742 20.7445 34.6842 21.1738C35.7479 21.6755 36.5333 22.3267 37.2765 23.3234L37.6878 23.8745L38.6855 23.1962C39.2345 22.8231 39.6834 22.4546 39.6834 22.3771C39.6834 22.1369 38.4664 20.6806 37.76 20.0752C37.0066 19.4297 35.3402 18.4941 34.9438 18.4941C34.2723 18.4941 34.8393 18.0397 36.1802 17.5034C38.1251 16.7255 40.7009 16.5733 42.7723 17.1139ZM32.9077 31.3264C35.2368 32.8604 37.119 33.4138 40.006 33.4138C42.893 33.4138 44.7751 32.8604 47.1043 31.3264C47.8443 30.8389 48.4939 30.4402 48.5476 30.4402C48.6015 30.4402 49.0314 31.2231 49.5031 32.1803L50.3607 33.9202L50.2957 37.3057C50.2349 40.4647 50.2022 40.7704 49.8064 41.8752C49.2081 43.5453 48.4758 44.7098 47.256 45.9308C46.0365 47.1517 44.8731 47.8847 43.2047 48.484C42.1835 48.8506 41.7572 48.9097 40.0866 48.9165C38.5197 48.9228 37.9366 48.8561 37.0225 48.5662C34.3987 47.734 32.0447 45.7475 30.8472 43.3548C29.8918 41.4462 29.6911 40.3074 29.6877 36.7783L29.6849 33.8341L30.528 32.1371C30.9917 31.2037 31.414 30.4402 31.4666 30.4402C31.5192 30.4402 32.1676 30.8389 32.9077 31.3264ZM27.1047 37.3818V38.6732H26.2104C25.1343 38.6732 24.5244 38.206 24.5244 37.3818C24.5244 36.5575 25.1343 36.0903 26.2104 36.0903H27.1047V37.3818ZM55.0916 36.4866C55.3413 36.7364 55.4875 37.0673 55.4875 37.3818C55.4875 38.206 54.8776 38.6732 53.8015 38.6732H52.9073V37.3818V36.0903H53.8015C54.5361 36.0903 54.7667 36.1612 55.0916 36.4866ZM40.006 51.4734C41.4566 51.4734 42.4656 51.3927 43.0297 51.2314L43.8764 50.9894V52.3001V53.6108L41.9412 55.5429L40.006 57.4751L38.0708 55.5429L36.1356 53.6108V52.3001V50.9894L36.9822 51.2314C37.5463 51.3927 38.5554 51.4734 40.006 51.4734ZM36.9469 58.1259C39.1924 60.3577 39.5228 60.6281 40.006 60.6281C40.4891 60.6281 40.8197 60.3577 43.0657 58.1251L45.5838 55.6222L55.1721 58.2896C65.3364 61.1172 65.622 61.2215 66.4093 62.3909C66.6093 62.6878 66.8457 63.1937 66.9349 63.5148C67.0313 63.8624 67.0973 66.7951 67.0977 70.758L67.0987 77.4171H63.2283H59.3579V72.2512V67.0854H58.0678H56.7777V72.2512V77.4171H40.006H23.2343V72.2512V67.0854H21.9441H20.654V72.2512V77.4171H16.7836H12.9132L12.9142 70.758C12.9147 66.7951 12.9806 63.8624 13.0771 63.5148C13.1663 63.1937 13.4027 62.6878 13.6026 62.3909C14.3879 61.2246 14.6851 61.1158 24.7663 58.3026C29.9994 56.8423 34.3144 55.6421 34.3554 55.6356C34.3962 55.629 35.5624 56.7497 36.9469 58.1259Z" fill="#1F5AF6"/>
</svg>

<svg fill="none" height="80" width="80" xmlns="http://www.w3.org/2000/svg"><path clip-rule="evenodd" d="M20.096.098c-2.346.369-4.23 1.208-6.553 2.918-.83.611-1.59 1.11-1.692 1.11-.102 0-.687.252-1.3.56C7.909 6.008 6.14 8.854 6.14 11.778c0 1.637.317 2.674 1.604 5.246l1.126 2.25-.626.107c-.88.149-2.007.91-2.54 1.716-.407.617-.45.819-.45 2.093 0 1.31.034 1.46.488 2.107.63.898 1.727 1.573 2.753 1.695l.804.095.304 1.071c.798 2.817 2.704 5.395 5.205 7.04l.686.451v3.459l-5.927 2.459c-3.26 1.352-6.31 2.718-6.778 3.034-1.02.69-1.663 1.469-2.256 2.735l-.44.943-.047 9.646L0 67.572l.402.403.402.402h9.529v10.831l.396.396.396.396h57.762l.396-.396.396-.396V68.377h9.529l.396-.396.396-.397-.002-9.25c-.002-9.67-.027-10.072-.72-11.428a6.06 6.06 0 0 0-2.056-2.304c-.468-.316-3.518-1.683-6.777-3.038L64.518 39.1v-3.451l.686-.45c2.5-1.646 4.407-4.224 5.205-7.04l.303-1.072.805-.095c1.838-.218 3.187-1.707 3.292-3.636.05-.928-.002-1.184-.405-1.956-.535-1.025-1.6-1.844-2.625-2.017-.357-.06-.649-.133-.649-.16 0-.029.338-.84.75-1.803.909-2.125 1.152-2.998 1.276-4.576.22-2.786-.991-5.938-3.07-7.993-1.26-1.244-2.26-1.829-5.729-3.348C61.577.286 60.382.01 57.987.034c-3.198.033-5.375.813-8.32 2.982-.83.611-1.59 1.11-1.692 1.11-.585 0-2.516 1.215-3.404 2.141-1.7 1.773-2.415 3.701-2.256 6.093.05.754.141 1.54.202 1.744.103.343.077.362-.353.25-.664-.175-3.886-.128-4.702.068l-.69.165.125-.589c.203-.962.103-3.257-.192-4.383-.65-2.482-2.526-5.022-4.621-6.26-1.422-.838-5.76-2.71-6.968-3.005-1.364-.334-3.742-.453-5.02-.252zm4.588 2.818c1.501.389 5.926 2.478 6.855 3.235 2.182 1.78 3.279 4.547 2.845 7.178-.326 1.974-.52 2.28-2.218 3.504-1.663 1.199-1.685 1.212-3.472 2.051-3.38 1.588-5.204 5.524-4.253 9.178.131.504.748 1.936 1.371 3.181l1.133 2.264h-.828c-1.32 0-2.069.305-2.969 1.206-1.631 1.633-1.631 3.705 0 5.338.94.94 1.645 1.205 3.21 1.205.826 0 1.07.053 1.07.234 0 .543 1.045 3.064 1.681 4.054.817 1.27 2.384 2.9 3.584 3.728l.862.594v3.313l-.846.244c-.466.134-4.548 1.268-9.072 2.52-4.523 1.25-8.55 2.388-8.95 2.528-2.573.898-4.354 3.471-4.354 6.29v1.033H2.581l.046-8.516c.045-8.446.049-8.52.404-9.186.197-.369.618-.885.936-1.147.358-.295 3.08-1.517 7.111-3.192 4.214-1.75 6.615-2.831 6.764-3.045.18-.258.232-.974.232-3.246 0-3.357.01-3.33-1.413-4.133-.509-.288-1.443-1.046-2.076-1.684a10.075 10.075 0 0 1-2.737-5.16c-.339-1.742-.637-2.018-2.176-2.018-.982 0-1.179-.051-1.523-.396-.524-.524-.524-1.266 0-1.79.345-.347.54-.397 1.539-.397.999 0 1.193-.05 1.54-.396.335-.336.395-.55.397-1.413.002-.951-.088-1.2-1.41-3.914L8.8 13.264v-1.461c0-1.356.04-1.534.55-2.476.655-1.21 1.378-1.882 2.587-2.41 1.613-.702 1.846-.838 3.394-1.98 1.6-1.183 3.317-1.977 4.876-2.256 1.118-.2 3.225-.09 4.477.235zm36.124 0c1.5.389 5.926 2.478 6.855 3.235 1.592 1.299 2.503 2.902 2.862 5.038.257 1.53-.041 2.944-1.176 5.584-.843 1.962-.96 2.361-.96 3.276 0 .892.057 1.1.396 1.439.346.346.54.396 1.539.396 1 0 1.194.05 1.54.397.523.524.523 1.266 0 1.79-.345.345-.542.396-1.524.396-1.54 0-1.837.276-2.176 2.018a10.138 10.138 0 0 1-2.737 5.167c-.633.641-1.569 1.402-2.08 1.69-1.421.798-1.409.762-1.409 4.139 0 2.558.036 2.975.282 3.264.163.192 3.024 1.472 6.762 3.026 4.009 1.666 6.701 2.875 7.06 3.172.32.263.742.78.939 1.15.355.664.358.74.404 9.185l.045 8.516h-7.75v-1.035c0-2.516-1.435-4.888-3.659-6.046-.194-.101-4.548-1.35-9.676-2.773-5.127-1.424-9.45-2.628-9.605-2.674-.245-.074-.282-.305-.282-1.743v-1.657l.881-.608c1.214-.837 2.972-2.73 3.762-4.05.363-.606.863-1.74 1.112-2.522l.453-1.422 1.03-.004c1.527-.006 2.237-.277 3.169-1.21 1.631-1.632 1.631-3.704 0-5.337-.9-.901-1.65-1.206-2.967-1.206-.456 0-.828-.029-.828-.065s.337-.852.749-1.816c.909-2.125 1.153-2.998 1.277-4.576.22-2.796-.968-5.877-3.082-7.993-1.074-1.075-1.436-1.313-3.611-2.371l-2.418-1.176-.53-1.131c-.476-1.017-.53-1.279-.53-2.584 0-1.347.04-1.527.55-2.468.655-1.21 1.378-1.882 2.588-2.41 1.613-.702 1.846-.838 3.394-1.98 1.6-1.183 3.317-1.977 4.875-2.256 1.119-.2 3.226-.09 4.477.235zM42.772 17.114c1.434.374 5.929 2.51 6.83 3.244 2.759 2.25 3.71 6.1 2.273 9.205l-.369.797-.75-1.487c-1.122-2.23-1.48-2.305-3.579-.755-2.682 1.98-4.048 2.564-6.435 2.748-2.704.208-4.924-.532-7.638-2.546-2.418-1.793-2.728-1.741-3.896.65-.395.808-.764 1.47-.82 1.47-.055 0-.421-.672-.813-1.493-.679-1.423-.712-1.561-.712-2.946 0-1.347.04-1.527.55-2.468.645-1.192 1.355-1.861 2.587-2.44.746-.35 1.122-.419 2.265-.417 1.19.003 1.51.068 2.42.498 1.063.501 1.848 1.153 2.592 2.15l.41.55.999-.678c.549-.373.997-.741.997-.819 0-.24-1.217-1.696-1.923-2.302-.753-.645-2.42-1.58-2.816-1.58-.672 0-.105-.455 1.236-.992 1.945-.778 4.52-.93 6.592-.39zm-9.864 14.212c2.329 1.534 4.211 2.088 7.098 2.088s4.77-.554 7.098-2.088c.74-.487 1.39-.886 1.444-.886.054 0 .483.783.955 1.74l.858 1.74-.065 3.386c-.061 3.159-.094 3.464-.49 4.57-.598 1.67-1.33 2.834-2.55 4.055-1.22 1.22-2.383 1.954-4.051 2.553-1.021.367-1.448.426-3.118.432-1.567.007-2.15-.06-3.064-.35-2.624-.832-4.978-2.819-6.176-5.211-.955-1.909-1.156-3.048-1.16-6.577l-.002-2.944.843-1.697c.464-.933.886-1.697.939-1.697s.7.399 1.44.886zm-5.803 6.056v1.291h-.895c-1.076 0-1.686-.467-1.686-1.291 0-.824.61-1.292 1.686-1.292h.895zm27.987-.895c.25.25.396.58.396.895 0 .824-.61 1.291-1.687 1.291h-.894V36.09h.895c.734 0 .965.071 1.29.397zM40.006 51.473c1.45 0 2.46-.08 3.024-.242l.846-.242v2.621l-1.935 1.933-1.935 1.932-1.935-1.932-1.935-1.932v-2.622l.846.242c.564.162 1.573.242 3.024.242zm-3.06 6.653c2.246 2.232 2.577 2.502 3.06 2.502.483 0 .814-.27 3.06-2.503l2.518-2.503 9.588 2.668c10.164 2.827 10.45 2.932 11.237 4.1.2.298.437.804.526 1.125.096.347.162 3.28.163 7.243v6.66h-7.74V67.084h-2.58v10.332H23.234V67.085h-2.58v10.332h-7.74v-6.659c0-3.963.067-6.896.163-7.243.09-.321.326-.827.526-1.124.785-1.166 1.082-1.275 11.163-4.088 5.233-1.46 9.548-2.66 9.59-2.667.04-.007 1.206 1.114 2.59 2.49z" fill="#1f5af6" fill-rule="evenodd"/></svg>
